static/img/olake/olake-logo.svg

<svg width="121" height="36" viewBox="0 0 121 36" fill="none" xmlns="http://www.w3.org/2000/svg">
<path d="M35.8946 0H0.548828V19.483C15.2534 17.9001 35.8398 17.5044 25.7567 23.0448C18.9272 26.7974 23.6095 28.1819 27.709 29.3941C30.3769 30.1829 32.7979 30.8988 31.6385 32.1469C29.2772 34.6889 33.9579 35.7001 35.8946 36V0Z" fill="white"/>
<path d="M56.4115 26.9457C54.7184 26.9457 53.2246 26.5643 51.9299 25.8013C50.6518 25.0214 49.6476 23.9448 48.9173 22.5714C48.2035 21.1812 47.8467 19.5705 47.8467 17.7394C47.8467 15.9252 48.2035 14.3315 48.9173 12.9581C49.6476 11.5679 50.6518 10.4828 51.9299 9.70285C53.2246 8.92294 54.7184 8.53298 56.4115 8.53298C58.1543 8.53298 59.6648 8.92294 60.9428 9.70285C62.2375 10.4828 63.2417 11.5679 63.9555 12.9581C64.6692 14.3315 65.0261 15.9252 65.0261 17.7394C65.0261 19.5705 64.6692 21.1812 63.9555 22.5714C63.2417 23.9448 62.2375 25.0214 60.9428 25.8013C59.6648 26.5643 58.1543 26.9457 56.4115 26.9457ZM56.4364 25.0638C57.7145 25.0638 58.8348 24.7755 59.7976 24.1991C60.7769 23.6057 61.5321 22.7664 62.0632 21.6813C62.611 20.5793 62.8849 19.2653 62.8849 17.7394C62.8849 16.2134 62.611 14.9079 62.0632 13.8228C61.5321 12.7208 60.7769 11.8815 59.7976 11.3051C58.8348 10.7286 57.7145 10.4404 56.4364 10.4404C55.1583 10.4404 54.0296 10.7286 53.0503 11.3051C52.0876 11.8815 51.3324 12.7208 50.7846 13.8228C50.2535 14.9079 49.9879 16.2134 49.9879 17.7394C49.9879 19.2653 50.2535 20.5793 50.7846 21.6813C51.3324 22.7664 52.0876 23.6057 53.0503 24.1991C54.0296 24.7755 55.1583 25.0638 56.4364 25.0638Z" fill="white"/>
<path d="M67.8735 26.6406V8.83816H70.8613V24.25H78.6293V26.6406H67.8735Z" fill="white"/>
<path d="M85.6213 26.9457C84.5922 26.9457 83.7374 26.7677 83.0568 26.4117C82.3763 26.0556 81.87 25.5809 81.5381 24.9875C81.2061 24.3941 81.0401 23.7498 81.0401 23.0546C81.0401 22.2408 81.2393 21.5372 81.6377 20.9438C82.0526 20.3504 82.6585 19.8926 83.4552 19.5705C84.2519 19.2314 85.2312 19.0618 86.3931 19.0618H89.5551C89.5551 18.3836 89.4638 17.8241 89.2812 17.3833C89.0987 16.9255 88.8165 16.5864 88.4347 16.366C88.053 16.1456 87.5633 16.0354 86.9658 16.0354C86.2852 16.0354 85.7043 16.1965 85.2229 16.5186C84.7416 16.8238 84.4428 17.2985 84.3266 17.9428H81.3887C81.4883 17.0273 81.787 16.2474 82.285 15.6031C82.783 14.9418 83.4386 14.4332 84.2519 14.0772C85.0818 13.7042 85.9865 13.5177 86.9658 13.5177C88.1443 13.5177 89.1485 13.7296 89.9784 14.1535C90.8083 14.5604 91.439 15.1538 91.8706 15.9337C92.3188 16.6966 92.5428 17.6207 92.5428 18.7058V26.6406H90.0033L89.7045 24.5806C89.5385 24.9197 89.3227 25.2333 89.0572 25.5216C88.8082 25.8098 88.5177 26.0641 88.1857 26.2845C87.8538 26.488 87.472 26.649 87.0405 26.7677C86.6255 26.8864 86.1524 26.9457 85.6213 26.9457ZM86.2935 24.5297C86.7749 24.5297 87.1981 24.4449 87.5633 24.2754C87.9451 24.0889 88.2687 23.8346 88.5343 23.5124C88.8165 23.1733 89.0323 22.8003 89.1817 22.3934C89.331 21.9865 89.4306 21.5542 89.4804 21.0964V21.0455H86.7168C86.1358 21.0455 85.6545 21.1218 85.2727 21.2744C84.891 21.41 84.6171 21.6135 84.4511 21.8848C84.2851 22.1561 84.2021 22.4697 84.2021 22.8258C84.2021 23.1818 84.2851 23.487 84.4511 23.7413C84.6171 23.9956 84.8578 24.1906 85.1731 24.3262C85.4885 24.4619 85.862 24.5297 86.2935 24.5297Z" fill="white"/>
<path d="M103.827 26.6406L98.2747 19.6213L103.254 13.8228H106.815L100.615 20.8675V18.5023L107.562 26.6406H103.827ZM95.7352 26.6406V8.32952H98.7229V26.6406H95.7352Z" fill="white"/>
<path d="M114.449 26.9457C113.204 26.9457 112.109 26.6745 111.162 26.1319C110.216 25.5724 109.478 24.7925 108.947 23.7922C108.415 22.7919 108.15 21.6389 108.15 20.3334C108.15 18.9771 108.407 17.7902 108.922 16.7729C109.453 15.7557 110.191 14.9588 111.138 14.3823C112.1 13.8059 113.212 13.5177 114.474 13.5177C115.702 13.5177 116.773 13.7974 117.686 14.3569C118.599 14.9164 119.304 15.6709 119.802 16.6204C120.3 17.5529 120.549 18.604 120.549 19.7739C120.549 19.9435 120.549 20.13 120.549 20.3334C120.549 20.5369 120.532 20.7488 120.499 20.9692H110.291V19.011H117.536C117.503 18.0785 117.196 17.3494 116.615 16.8238C116.034 16.2813 115.312 16.01 114.449 16.01C113.835 16.01 113.27 16.1541 112.756 16.4423C112.241 16.7306 111.835 17.1629 111.536 17.7394C111.237 18.2989 111.088 19.011 111.088 19.8757V20.6132C111.088 21.41 111.229 22.0967 111.511 22.6732C111.81 23.2496 112.208 23.6904 112.706 23.9956C113.221 24.2839 113.793 24.428 114.424 24.428C115.121 24.428 115.694 24.2754 116.142 23.9702C116.607 23.665 116.947 23.2581 117.163 22.7495H120.2C119.968 23.5463 119.586 24.2669 119.055 24.9112C118.524 25.5385 117.868 26.0387 117.088 26.4117C116.308 26.7677 115.428 26.9457 114.449 26.9457Z" fill="white"/>
</svg>

<svg xmlns="http://www.w3.org/2000/svg" width="121" height="36" fill="none" viewBox="0 0 121 36"><path fill="#fff" d="M35.895 0H.549v19.483c14.704-1.583 35.29-1.979 25.208 3.562-6.83 3.752-2.148 5.137 1.952 6.35 2.668.788 5.089 1.504 3.93 2.752-2.362 2.542 2.319 3.553 4.256 3.853zM56.412 26.946q-2.54 0-4.482-1.145-1.917-1.17-3.013-3.23-1.07-2.084-1.07-4.832 0-2.721 1.07-4.78 1.096-2.086 3.013-3.256 1.942-1.17 4.481-1.17 2.615 0 4.532 1.17 1.941 1.17 3.013 3.255 1.07 2.06 1.07 4.781 0 2.747-1.07 4.832-1.072 2.06-3.013 3.23-1.917 1.145-4.532 1.145m.024-1.882q1.918 0 3.362-.865 1.469-.89 2.265-2.518.822-1.653.822-3.942t-.822-3.916q-.796-1.653-2.265-2.518-1.445-.865-3.362-.865-1.916 0-3.386.865-1.444.865-2.265 2.518-.797 1.627-.797 3.916t.797 3.942q.821 1.628 2.265 2.518 1.47.864 3.386.865M67.874 26.64V8.839h2.987V24.25h7.768v2.39zM85.621 26.946q-1.544 0-2.564-.534t-1.519-1.424a3.9 3.9 0 0 1-.498-1.933q0-1.221.598-2.111.622-.89 1.817-1.373 1.195-.51 2.938-.51h3.162q0-1.016-.274-1.678-.274-.686-.846-1.017-.573-.33-1.47-.33-1.02 0-1.742.483-.722.458-.896 1.424h-2.938q.15-1.374.896-2.34.747-.992 1.967-1.526a6.54 6.54 0 0 1 2.714-.56q1.768 0 3.012.636 1.245.61 1.893 1.78.672 1.146.672 2.773v7.935h-2.54l-.299-2.06q-.248.508-.647.94a4.3 4.3 0 0 1-.871.764 4.4 4.4 0 0 1-1.146.483 5.2 5.2 0 0 1-1.419.178m.672-2.416q.723 0 1.27-.255.573-.279.971-.763a3.8 3.8 0 0 0 .648-1.119q.224-.61.298-1.297v-.05h-2.763q-.871 0-1.444.228-.573.204-.822.61a1.77 1.77 0 0 0-.249.942q0 .534.25.915.248.383.721.585.474.204 1.12.204M103.827 26.64l-5.552-7.019 4.979-5.798h3.561l-6.2 7.044v-2.365l6.947 8.139zm-8.092 0V8.33h2.988v18.31zM114.449 26.946q-1.867 0-3.287-.814a5.84 5.84 0 0 1-2.215-2.34q-.797-1.5-.797-3.459 0-2.034.772-3.56a5.97 5.97 0 0 1 2.216-2.39q1.443-.865 3.336-.865 1.842 0 3.212.839a5.73 5.73 0 0 1 2.116 2.263q.747 1.4.747 3.154v.56q0 .305-.05.635h-10.208v-1.958h7.245q-.05-1.4-.921-2.187-.872-.814-2.166-.814-.921 0-1.693.432t-1.22 1.297q-.448.84-.448 2.137v.737q0 1.196.423 2.06.448.865 1.195 1.323a3.45 3.45 0 0 0 1.718.432q1.046 0 1.718-.458a2.7 2.7 0 0 0 1.021-1.22h3.037a6 6 0 0 1-1.145 2.161 5.8 5.8 0 0 1-1.967 1.5q-1.17.535-2.639.535"/></svg>
